X:2
T:Es wird scho gleich dumpa
N:Transposed
S:Traditional
O:Austria
Z:https://www.flutetunes.com/tunes.php?id=3678
Q:1/4=96
M:3/4
L:1/4
K:F
C|FFG|A/2c/2c>B|AAG|F2C|
FFG|A/2c/2c>B|AAG|F2c|
cAc|c/2B/2G>B|AFA|G2C|
FFG|A/2c/2c>B|AAG|F2B/2E/2|
F2G/2C/2|F2F/2A/2|cA/2F/2G/2C/2|F2|


